!!!OTL: Wugu fengdeng xiyangyang
!!!ARE: Asia, China,ÿJiangsu, Xinghua
!! III, 509(1)
!!!SCT: C1595
!!!YEM: Copyright 1995, estate of Helmut Schaffrath.
**kern
*ICvox
*Ivox
!! Mixed meters:  2/4; 3/4
*M3/4
*k[f#]
*G:
{8a
8a
8a
8b
=1
8a
16g
16e
8e
8b
=2
8a
16g
16e
4e}
=3
{8a
8a
16g
16a
16b
16dd
=4
8a
16g
16e
4e}
=5
{8g
8a
8dd
16ee
16dd
=6
8ee
8dd
8dd
16dd
16b
=7
8a
16g
16e
4g
4a
=8
*M2/4
16a
16g
8e
4d}
=9
{8.a
16b
4dd
=10
*M3/4
8a
16g
16e
4g
4a
=11
16a
16g
8e
4d}
==
!!!AGN: Wuge, Qilinchang
!!!AMT: irregular
!!!AIN: vox
!!!EED: Helmut Schaffrath
!!!EEV: 1.0
*-
